X: 104106
T: The CAMERONIAN RANT
Q:"Reel."
R: Reel.
%R:reel
B: James Kerr "Merry Melodies" v.1 p.4 s.1 #6
Z: 2017 John Chambers <jc:trillian.mit.edu>
M: C
L: 1/8
K: G
|: g |\
dG G/G/G (dc)Bc | dG G/G/G d2Bd |\
cA A/A/A (cB)AB | cA A/A/A d2B :|\
A |\
Ggga gedB | Ggga gedB |
Aaab agec | Aaab agec |\
Ggga gedB | Ggga g2(eg) |\
fgeg fgef | gaba gbe |]

% %newpage
%%sep 1 1 500
%%sep 1 1 500
%%center Set. 3rd.

%%sep 1 1 500
%%sep 1 1 500

